resources/haticons/SVG/html-five2.svg

<!-- Generated by IcoMoon.io -->
<svg version="1.1" xmlns="http://www.w3.org/2000/svg" width="24" height="24" viewBox="0 0 24 24">
<title>html-five2</title>
<path d="M1.419 0l1.925 21.601 8.643 2.399 8.665-2.403 1.929-21.597h-21.162zM19.002 20.222l-6.966 1.931v0.011l-0.018-0.005-0.018 0.005v-0.011l-6.966-1.931-1.646-18.457h17.262l-1.646 18.457zM15.252 12.427l-0.306 3.435-2.958 0.799-2.95-0.795-0.189-2.115h-2.66l0.371 4.16 5.439 1.504 5.422-1.504 0.727-8.133h-9.655l-0.241-2.713h10.138l0.237-2.649h-13.271l0.715 8.011z"></path>
</svg>

<svg xmlns="http://www.w3.org/2000/svg" width="24" height="24"><path d="M1.419 0l1.925 21.601L11.987 24l8.665-2.403L22.581 0H1.419zm17.583 20.222l-6.966 1.931v.011l-.018-.005-.018.005v-.011l-6.966-1.931L3.388 1.765H20.65l-1.646 18.457zm-3.75-7.795l-.306 3.435-2.958.799-2.95-.795-.189-2.115h-2.66l.371 4.16 5.439 1.504 5.422-1.504.727-8.133H8.493l-.241-2.713H18.39l.237-2.649H5.356l.715 8.011z"/></svg>
